build/images/img/list.svg

<svg xmlns="http://www.w3.org/2000/svg" width="21" height="19"><path fill="#adb1b8" d="M19.723 15.636H7.511a.29.29 0 01-.293-.288.29.29 0 01.293-.287h12.212a.29.29 0 01.293.287.29.29 0 01-.293.288zm0-4.912H7.511a.29.29 0 01-.293-.288.29.29 0 01.293-.287h12.212a.29.29 0 01.293.287.29.29 0 01-.293.288zm0-1.842H7.511a.29.29 0 01-.293-.288.29.29 0 01.293-.287h12.212a.29.29 0 01.293.287.29.29 0 01-.293.288zm0-4.912H7.511a.29.29 0 01-.293-.287.29.29 0 01.293-.288h12.212a.29.29 0 01.293.288.29.29 0 01-.293.287zm0-1.841H7.511a.291.291 0 01-.293-.288.29.29 0 01.293-.288h12.212a.29.29 0 01.293.288.291.291 0 01-.293.288zM4.693 19.013H.936a.913.913 0 01-.92-.902v-3.684c0-.497.413-.901.92-.901h3.757c.508 0 .92.404.92.901v3.684a.912.912 0 01-.92.902zm.333-4.586a.33.33 0 00-.333-.326H.936a.33.33 0 00-.333.326v3.684c0 .18.15.326.333.326h3.757a.33.33 0 00.333-.326v-3.684zm-.333-2.168H.936a.912.912 0 01-.92-.901V7.674c0-.498.413-.902.92-.902h3.757c.508 0 .92.404.92.902v3.684a.911.911 0 01-.92.901zm.333-4.585a.33.33 0 00-.333-.327H.936a.33.33 0 00-.333.327v3.684c0 .179.15.326.333.326h3.757a.33.33 0 00.333-.326V7.674zm-.333-2.169H.936a.912.912 0 01-.92-.901V.92c0-.497.413-.902.92-.902h3.757c.508 0 .92.405.92.902v3.684a.911.911 0 01-.92.901zM5.026.92a.33.33 0 00-.333-.326H.936A.33.33 0 00.603.92v3.684c0 .179.15.326.333.326h3.757a.33.33 0 00.333-.326V.92zm2.485 15.982h12.212a.29.29 0 01.293.288.29.29 0 01-.293.288H7.511a.29.29 0 01-.293-.288.29.29 0 01.293-.288z"/></svg>

<svg 
 xmlns="http://www.w3.org/2000/svg"
 xmlns:xlink="http://www.w3.org/1999/xlink"
 width="21px" height="19px">
<path fill="#adb1b8"
 d="M19.723,15.636 L7.511,15.636 C7.349,15.636 7.218,15.507 7.218,15.348 C7.218,15.190 7.349,15.061 7.511,15.061 L19.723,15.061 C19.885,15.061 20.016,15.190 20.016,15.348 C20.016,15.507 19.885,15.636 19.723,15.636 ZM19.723,10.724 L7.511,10.724 C7.349,10.724 7.218,10.595 7.218,10.436 C7.218,10.278 7.349,10.149 7.511,10.149 L19.723,10.149 C19.885,10.149 20.016,10.278 20.016,10.436 C20.016,10.595 19.885,10.724 19.723,10.724 ZM19.723,8.882 L7.511,8.882 C7.349,8.882 7.218,8.753 7.218,8.594 C7.218,8.436 7.349,8.307 7.511,8.307 L19.723,8.307 C19.885,8.307 20.016,8.436 20.016,8.594 C20.016,8.753 19.885,8.882 19.723,8.882 ZM19.723,3.970 L7.511,3.970 C7.349,3.970 7.218,3.842 7.218,3.683 C7.218,3.524 7.349,3.395 7.511,3.395 L19.723,3.395 C19.885,3.395 20.016,3.524 20.016,3.683 C20.016,3.842 19.885,3.970 19.723,3.970 ZM19.723,2.129 L7.511,2.129 C7.349,2.129 7.218,1.999 7.218,1.841 C7.218,1.682 7.349,1.553 7.511,1.553 L19.723,1.553 C19.885,1.553 20.016,1.682 20.016,1.841 C20.016,1.999 19.885,2.129 19.723,2.129 ZM4.693,19.013 L0.936,19.013 C0.429,19.013 0.016,18.608 0.016,18.111 L0.016,14.427 C0.016,13.930 0.429,13.526 0.936,13.526 L4.693,13.526 C5.201,13.526 5.613,13.930 5.613,14.427 L5.613,18.111 C5.613,18.608 5.201,19.013 4.693,19.013 ZM5.026,14.427 C5.026,14.247 4.877,14.101 4.693,14.101 L0.936,14.101 C0.753,14.101 0.603,14.247 0.603,14.427 L0.603,18.111 C0.603,18.291 0.753,18.437 0.936,18.437 L4.693,18.437 C4.877,18.437 5.026,18.291 5.026,18.111 L5.026,14.427 ZM4.693,12.259 L0.936,12.259 C0.429,12.259 0.016,11.855 0.016,11.358 L0.016,7.674 C0.016,7.176 0.429,6.772 0.936,6.772 L4.693,6.772 C5.201,6.772 5.613,7.176 5.613,7.674 L5.613,11.358 C5.613,11.855 5.201,12.259 4.693,12.259 ZM5.026,7.674 C5.026,7.493 4.877,7.347 4.693,7.347 L0.936,7.347 C0.753,7.347 0.603,7.493 0.603,7.674 L0.603,11.358 C0.603,11.537 0.753,11.684 0.936,11.684 L4.693,11.684 C4.877,11.684 5.026,11.537 5.026,11.358 L5.026,7.674 ZM4.693,5.505 L0.936,5.505 C0.429,5.505 0.016,5.101 0.016,4.604 L0.016,0.920 C0.016,0.423 0.429,0.018 0.936,0.018 L4.693,0.018 C5.201,0.018 5.613,0.423 5.613,0.920 L5.613,4.604 C5.613,5.101 5.201,5.505 4.693,5.505 ZM5.026,0.920 C5.026,0.740 4.877,0.594 4.693,0.594 L0.936,0.594 C0.753,0.594 0.603,0.740 0.603,0.920 L0.603,4.604 C0.603,4.783 0.753,4.930 0.936,4.930 L4.693,4.930 C4.877,4.930 5.026,4.783 5.026,4.604 L5.026,0.920 ZM7.511,16.902 L19.723,16.902 C19.885,16.902 20.016,17.031 20.016,17.190 C20.016,17.349 19.885,17.478 19.723,17.478 L7.511,17.478 C7.349,17.478 7.218,17.349 7.218,17.190 C7.218,17.031 7.349,16.902 7.511,16.902 Z"/>
</svg>
